assets/Curling stone/Flat/curling_stone_flat.svg

<svg width="32" height="32" viewBox="0 0 32 32" fill="none" xmlns="http://www.w3.org/2000/svg">
<path d="M29.3264 20L27 19H4L2.67363 20C2.24169 20.9093 2 21.9264 2 23C2 26.866 5.13401 30 9 30H23C26.866 30 30 26.866 30 23C30 21.9264 29.7583 20.9093 29.3264 20Z" fill="#B4ACBC"/>
<path d="M14.6857 9.68566C14.5212 9.85014 14.5 9.98785 14.5 10V13H11.5V10C11.5 9.01216 11.9788 8.14986 12.5643 7.56434C13.1499 6.97882 14.0122 6.50001 15 6.5L21 6.50001C21.8284 6.50001 22.5 7.17158 22.5 8.00001C22.5 8.82844 21.8284 9.50001 21 9.50001L15 9.5C14.9878 9.50001 14.8501 9.52124 14.6857 9.68566Z" fill="#CA0B4A"/>
<path d="M11.0002 12C9.89563 12 9.0002 12.8954 9.0002 14V16C6.2078 16 3.79729 17.6351 2.67383 20H29.3266C28.2031 17.6351 25.7926 16 23.0002 16V14C23.0002 12.8954 22.1048 12 21.0002 12H11.0002Z" fill="#F8312F"/>
</svg>

<svg xmlns="http://www.w3.org/2000/svg" width="32" height="32" fill="none"><path fill="#B4ACBC" d="M29.326 20 27 19H4l-1.326 1A7 7 0 0 0 9 30h14a7 7 0 0 0 6.326-10Z"/><path fill="#CA0B4A" d="M14.686 9.686c-.165.164-.186.302-.186.314v3h-3v-3c0-.988.479-1.85 1.064-2.436C13.15 6.98 14.012 6.5 15 6.5h6a1.5 1.5 0 0 1 0 3h-6c-.012 0-.15.021-.314.186Z"/><path fill="#F8312F" d="M11 12a2 2 0 0 0-2 2v2a7 7 0 0 0-6.326 4h26.653A7 7 0 0 0 23 16v-2a2 2 0 0 0-2-2H11Z"/></svg>
